X: 363
T: Oj cvetjot Kalina
O: Russia
F: http://www.youtube.com/watch?v=AwSz4CKkYUM
M: 2/4
L: 1/8
K: Cm
Q: 1/4=120
%%MIDI program 22 Harmonica
%%MIDI bassprog 34 Electric Bass (pick)
%%MIDI gchord fz
"Cm"C2C2|"Gm"=B,2G,2|"Cm"C4  |"Fm"F4  |\
"Gm"E2E2|DCD2       |[1"Cm"C4|C4      :|"Eb"E4|E4|:
B2B2    |c2B2       |"Fm"A4  |"Fm"G2F2|B2B2   |\
AGA2    |"Gm"G4     |G4      |
G,2G2   |G2"Fm"F2   |F4      |E2D2    |\
"Gm"G2G2|FGF2       |"Cm"C4- |C4      :|



